X:1
T:Title
%%score [ ( 1 2 ) ( 3 4 ) ]
L:1/8
Q:1/4=120
M:4/4
K:D
V:1 treble nm="MusicXML Part"
V:2 treble 
V:3 bass nm="MusicXML Part"
V:4 bass 
V:1
"^Hawarden (66. 66. D)""^There is a blessed home""^Sir H. W. Baker\n(1821-77)" A2 | d2 c2 c2 B2 | %2
w: ||
w: ||
w: ||
w: ||
 A4 A4 | D2 E2 F2 E2 |"^S. S. Wesley\n(1810-1876)" D6 || A2 | d2 c2 c2 B2 | A4 A4 | D2 E2 F2 E2 | %9
w: |||||||
w: |||||||
w: |||||||
w: |||||||
 D6 || D2 | F2 D2 A2 F2 | d4 c4 | c2 B2 A2 ^G2 | A6 || A2 | B2 B2 B2 cd | c4 d4 | E2 FG F2 E2 | %19
w: ||||||And|e- ver- last- ing *|light Its|glo- ry * throws a-|
w: ||||||Christ,|with the Fa- ther *|one and|Spi- rit, * e- ver-|
w: ||||||And|sing through end- less *|days The|great things * he hath|
w: ||||||His|own most grac- ious *|smile Shall|wel- come * you a-|
 D6 |] %20
w: round.|
w: more.|
w: done.|
w: bove.|
V:2
 F2 | F2 A2 A2 G2 | F4 E4 | D2 D2 D2 C2 | D6 || F2 | F2 A2 A2 G2 | F4 E4 | D2 D2 D2 C2 | D6 || D2 | %11
w: There|is a bless- ed|home Be-|yond this land of|woe,|Where|tri- als ne- ver|come, Nor|tears of sor- row|flow;|Where|
w: There|is a land of|peace, Good|an- gels know it|well,|Glad|songs that ne- ver|cease With-|in its por- tals|swell;|A-|
w: O|joy all joys be-|yond, To|see the Lamb who|died,|And|count each sac- red|wound In|hands, and feet, and|side;|To|
w: Look|up, ye saints of|God, Nor|fear to tread be-|low|The|path your Sa- viour|trod Of|dai- ly toil and|woe;|Wait|
 D2 D2 D2 D2 | F4 ^E4 | F2 F2 =E2 E2 | E6 || E2 | F2 F2 E2 E2 | E4 D4 | D2 D2 D2 C2 | D6 |] %20
w: faith is lost in|sight, And|pat- ient hope is|crowned,||||||
w: round its glo- rious|throne Ten|thou- sand saints a-|dore||||||
w: give to him the|praise Of|ev- ery tri- umph|won,||||||
w: but a lit- tle|while In|un- com- plain- ing|love||||||
V:3
 A,2 | A,2 F,2 G,2 B,2 | D4 A,4 | F,2 B,2 A,3 G, | F,6 || A,2 | A,2 F,2 G,2 B,2 | D4 A,4 | %8
 F,2 B,2 A,3 G, | F,6 || F,2 | A,2 F,2 F,2 A,2 | ^G,4 G,4 | A,2 B,2 C2 D2 | C6 || C2 | %16
 D2 D2 B,2 B,2 | A,4 A,4 | B,2 D2 A,3 G, | F,6 |] %20
V:4
 D,2 | D,2 D,2 D,2 D,2 | D,4 C,4 | B,,2 G,,2 A,,2 A,,2 | D,6 || D,2 | D,2 D,2 D,2 D,2 | D,4 C,4 | %8
 B,,2 G,,2 A,,2 A,,2 | D,6 || D,2 | D,2 D,2 C,2 C,2 | B,,4 C,4 | F,2 D,2 E,2 E,2 | A,,6 || A,2 | %16
 A,2 D,2 G,2 G,2 | G,4 F,4 | G,2 A,B, A,2 A,,2 | D,6 |] %20

